svg/SJJB-OpenStreetMapIcons/shopping/convenience.svg

<?xml version="1.0" encoding="UTF-8" standalone="no"?>
<!-- Created with Inkscape (http://www.inkscape.org/) -->
<svg
   xmlns:dc="http://purl.org/dc/elements/1.1/"
   xmlns:cc="http://creativecommons.org/ns#"
   xmlns:rdf="http://www.w3.org/1999/02/22-rdf-syntax-ns#"
   xmlns:svg="http://www.w3.org/2000/svg"
   xmlns="http://www.w3.org/2000/svg"
   xmlns:sodipodi="http://sodipodi.sourceforge.net/DTD/sodipodi-0.dtd"
   xmlns:inkscape="http://www.inkscape.org/namespaces/inkscape"
   version="1.0"
   width="580"
   height="580"
   id="svg2"
   sodipodi:version="0.32"
   inkscape:version="0.46"
   sodipodi:docname="shopping_convinience.svg"
   sodipodi:docbase="s:\Data\FacilityIcons"
   inkscape:output_extension="org.inkscape.output.svg.inkscape">
  <metadata
     id="metadata2975">
    <rdf:RDF>
      <cc:Work
         rdf:about="">
        <dc:format>image/svg+xml</dc:format>
        <dc:type
           rdf:resource="http://purl.org/dc/dcmitype/StillImage" />
        <cc:license
           rdf:resource="http://web.resource.org/cc/PublicDomain" />
        <dc:language>en</dc:language>
      </cc:Work>
    </rdf:RDF>
  </metadata>
  <sodipodi:namedview
     inkscape:window-height="783"
     inkscape:window-width="1103"
     inkscape:pageshadow="2"
     inkscape:pageopacity="0.0"
     guidetolerance="10.0"
     gridtolerance="10.0"
     objecttolerance="10.0"
     borderopacity="1.0"
     bordercolor="#666666"
     pagecolor="#ffffff"
     id="base"
     inkscape:zoom="0.46083856"
     inkscape:cx="318.83568"
     inkscape:cy="319.23647"
     inkscape:window-x="91"
     inkscape:window-y="88"
     inkscape:current-layer="svg2"
     showgrid="false" />
  <defs
     id="defs4">
    <inkscape:perspective
       sodipodi:type="inkscape:persp3d"
       inkscape:vp_x="0 : 290 : 1"
       inkscape:vp_y="0 : 1000 : 0"
       inkscape:vp_z="580 : 290 : 1"
       inkscape:persp3d-origin="290 : 193.33333 : 1"
       id="perspective2441" />
    <inkscape:perspective
       id="perspective2466"
       inkscape:persp3d-origin="372.04724 : 350.78739 : 1"
       inkscape:vp_z="744.09448 : 526.18109 : 1"
       inkscape:vp_y="0 : 1000 : 0"
       inkscape:vp_x="0 : 526.18109 : 1"
       sodipodi:type="inkscape:persp3d" />
  </defs>
  <g
     id="g1327">
    <path
       d="M 66.275,1.768 C 24.94,1.768 1.704,23.139 1.704,66.804 L 1.704,516.927 C 1.704,557.771 22.599,579.156 63.896,579.156 L 515.92,579.156 C 557.227,579.156 578.149,558.841 578.149,516.927 L 578.149,66.804 C 578.149,24.203 557.227,1.768 514.628,1.768 C 514.624,1.768 66.133,1.625 66.275,1.768 z "
       style="fill:#111;stroke:#eee;stroke-width:3.40799999"
       id="path1329" />
  </g>
  <g
     id="g10747"
     transform="translate(32,66)">
    <path
       sodipodi:nodetypes="ccccc"
       id="path3264"
       d="M 477.06925,164.57688 L 48.196494,164.57688 L 97.86424,376.40271 L 427.39502,374.94461 L 477.06925,164.57688 z"
       style="fill:none;fill-rule:evenodd;stroke:#ffffff;stroke-width:28.1733551;stroke-linecap:round;stroke-linejoin:round;stroke-miterlimit:4;stroke-dasharray:none;stroke-opacity:1" />
    <path
       sodipodi:nodetypes="cc"
       style="fill:none;fill-rule:evenodd;stroke:#ffffff;stroke-width:18.7822361;stroke-linecap:round;stroke-linejoin:miter;stroke-miterlimit:4;stroke-dasharray:none;stroke-opacity:1"
       d="M 128.06871,165.73536 L 128.06871,363.20709"
       id="path3268" />
    <path
       id="path3280"
       d="M 86.424707,243.00115 L 445.19209,243.00115"
       style="fill:none;fill-rule:evenodd;stroke:#ffffff;stroke-width:18.7822361;stroke-linecap:round;stroke-linejoin:miter;stroke-miterlimit:4;stroke-dasharray:none;stroke-opacity:1"
       sodipodi:nodetypes="cc" />
    <path
       sodipodi:nodetypes="cc"
       id="path3318"
       d="M 215.1525,165.73536 L 215.1525,363.25095"
       style="fill:none;fill-rule:evenodd;stroke:#ffffff;stroke-width:18.7822361;stroke-linecap:round;stroke-linejoin:miter;stroke-miterlimit:4;stroke-dasharray:none;stroke-opacity:1" />
    <path
       sodipodi:nodetypes="cc"
       style="fill:none;fill-rule:evenodd;stroke:#ffffff;stroke-width:18.7822361;stroke-linecap:round;stroke-linejoin:miter;stroke-miterlimit:4;stroke-dasharray:none;stroke-opacity:1"
       d="M 306.2363,165.73536 L 306.2363,372.15933"
       id="path3320" />
    <path
       sodipodi:nodetypes="cc"
       id="path3322"
       d="M 395.3201,165.73536 L 395.3201,373.5219"
       style="fill:none;fill-rule:evenodd;stroke:#ffffff;stroke-width:18.7822361;stroke-linecap:round;stroke-linejoin:miter;stroke-miterlimit:4;stroke-dasharray:none;stroke-opacity:1" />
    <path
       sodipodi:nodetypes="cc"
       style="fill:none;fill-rule:evenodd;stroke:#ffffff;stroke-width:18.7822361;stroke-linecap:round;stroke-linejoin:miter;stroke-miterlimit:4;stroke-dasharray:none;stroke-opacity:1"
       d="M 104.24147,322.08495 L 427.37533,322.08495"
       id="path3324" />
  </g>
  <path
     style="fill:#ffffff;fill-rule:evenodd;stroke:#ffffff;stroke-width:20;stroke-linecap:round;stroke-linejoin:round;stroke-miterlimit:4;stroke-dasharray:none;stroke-opacity:1"
     d="M 287.11282,222.95322 L 340.84305,78.558998 L 356.51268,84.389791 L 302.02568,230.81774 L 287.11282,222.95322 z"
     id="path10756"
     sodipodi:nodetypes="ccccc" />
</svg>

<svg xmlns="http://www.w3.org/2000/svg" viewBox="0 0 580 580"><path d="m66.28 1.768c-41.34 0-64.57 21.371-64.57 65.04v450.12c0 40.844 20.895 62.23 62.19 62.23h452.02c41.31 0 62.23-20.315 62.23-62.23v-450.12c0-42.601-20.922-65.04-63.52-65.04-.004 0-448.5-.143-448.35 0z" fill="#111" stroke="#eee" stroke-width="3.408"/><g transform="translate(32 66)" fill="none" fill-rule="evenodd" stroke="#fff" stroke-linecap="round"><path d="m477.07 164.58h-428.87l49.668 211.83 329.53-1.458 49.674-210.37z" stroke-linejoin="round" stroke-width="28.17"/><g stroke-width="18.782"><path d="m128.07 165.74v197.47"/><path d="m86.42 243h358.77"/><path d="m215.15 165.74v197.52"/><path d="m306.24 165.74v206.42"/><path d="m395.32 165.74v207.79"/><path d="m104.24 322.08h323.13"/></g></g><path d="m287.11 222.95l53.73-144.39 15.67 5.831-54.49 146.43-14.913-7.865z" fill="#fff" fill-rule="evenodd" stroke="#fff" stroke-linejoin="round" stroke-linecap="round" stroke-width="20"/></svg>
